newicons/randomizer.svg

<?xml version="1.0" encoding="UTF-8" standalone="no"?>
<svg
   viewBox="0 0 48 48"
   version="1.1"
   id="svg1"
   sodipodi:docname="randomizer.svg"
   inkscape:version="1.2.2 (b0a8486541, 2022-12-01)"
   xml:space="preserve"
   xmlns:inkscape="http://www.inkscape.org/namespaces/inkscape"
   xmlns:sodipodi="http://sodipodi.sourceforge.net/DTD/sodipodi-0.dtd"
   xmlns="http://www.w3.org/2000/svg"
   xmlns:svg="http://www.w3.org/2000/svg"><sodipodi:namedview
     id="namedview1"
     pagecolor="#505050"
     bordercolor="#eeeeee"
     borderopacity="1"
     inkscape:showpageshadow="0"
     inkscape:pageopacity="0"
     inkscape:pagecheckerboard="0"
     inkscape:deskcolor="#505050"
     inkscape:zoom="8.90625"
     inkscape:cx="-16.842105"
     inkscape:cy="25.038596"
     inkscape:window-width="1918"
     inkscape:window-height="1053"
     inkscape:window-x="0"
     inkscape:window-y="0"
     inkscape:window-maximized="1"
     inkscape:current-layer="svg1"
     showgrid="false" /><defs
     id="defs1"><style
       id="style1">.a { fill:none;stroke:#fff;stroke-linecap:round;stroke-linejoin:round; }
</style></defs><path
     style="fill:none;stroke:#ffffff;stroke-linecap:round;stroke-linejoin:round;stroke-dashoffset:3.6"
     d="m 9.5,5.5 h 29 c 2.216,0 4,1.784 4,4 v 29 c 0,2.216 -1.784,4 -4,4 h -29 c -2.216,0 -4,-1.784 -4,-4 v -29 c 0,-2.216 1.784,-4 4,-4 z"
     id="path323" /><path
     style="fill:none;stroke:#ffffff;stroke-linecap:round;stroke-linejoin:round;stroke-dashoffset:3.6"
     d="M 17.852219,13.644164 A 4.2128768,4.2128768 0 0 1 13.639342,17.857041 4.2128768,4.2128768 0 0 1 9.4264655,13.644164 4.2128768,4.2128768 0 0 1 13.639342,9.4312873 4.2128768,4.2128768 0 0 1 17.852219,13.644164 Z"
     id="path321" /><path
     style="fill:none;stroke:#ffffff;stroke-linecap:round;stroke-linejoin:round;stroke-dashoffset:3.6"
     d="m 30.14778,34.355835 a 4.2128768,4.2128768 0 0 1 4.212877,-4.212877 4.2128768,4.2128768 0 0 1 4.212877,4.212877 4.2128768,4.2128768 0 0 1 -4.212877,4.212877 4.2128768,4.2128768 0 0 1 -4.212877,-4.212877 z"
     id="path319" /><path
     style="fill:none;stroke:#ffffff;stroke-linecap:round;stroke-linejoin:round;stroke-dashoffset:3.6"
     d="M 19.787123,24 A 4.2128768,4.2128768 0 0 1 24,19.787123 4.2128768,4.2128768 0 0 1 28.212877,24 4.2128768,4.2128768 0 0 1 24,28.212877 4.2128768,4.2128768 0 0 1 19.787123,24 Z"
     id="path317" /></svg>

<?xml version="1.0" encoding="UTF-8"?><svg id="a" xmlns="http://www.w3.org/2000/svg" viewBox="0 0 48 48"><defs><style>.f{fill:none;stroke:#fff;stroke-linecap:round;stroke-linejoin:round;}</style></defs><path id="b" class="f" d="M9.5,5.5h29c2.216,0,4,1.784,4,4v29c0,2.216-1.784,4-4,4H9.5c-2.216,0-4-1.784-4-4V9.5c0-2.216,1.784-4,4-4Z"/><path id="c" class="f" d="M17.8522,13.6442c0,2.3267-1.8862,4.2129-4.2129,4.2129s-4.2129-1.8862-4.2129-4.2129,1.8862-4.2129,4.2129-4.2129,4.2129,1.8862,4.2129,4.2129Z"/><path id="d" class="f" d="M30.1478,34.3558c0-2.3267,1.8862-4.2129,4.2129-4.2129h0c2.3267,0,4.2129,1.8862,4.2129,4.2129s-1.8862,4.2129-4.2129,4.2129-4.2129-1.8862-4.2129-4.2129Z"/><path id="e" class="f" d="M19.7871,24c0-2.3267,1.8862-4.2129,4.2129-4.2129h0c2.3267,0,4.2129,1.8862,4.2129,4.2129h0c0,2.3267-1.8862,4.2129-4.2129,4.2129h0c-2.3267,0-4.2129-1.8862-4.2129-4.2129h0Z"/></svg>
